build/documents/FileSNGOutline.svg

<svg xmlns="http://www.w3.org/2000/svg" fill="none" viewBox="0 0 24 24" focusable="false"><path d="M0 0H24V24H0z"/><path fill="#74767B" fill-rule="evenodd" d="M17.6499 4.6501L9.66764 4.6501C8.72875 4.6501 7.96764 5.41121 7.96764 6.35009L7.96764 16.3655C7.96764 17.3044 8.72876 18.0655 9.66764 18.0655L17.6499 18.0655C18.5888 18.0655 19.3499 17.3044 19.3499 16.3655L19.3499 6.3501C19.3499 5.41121 18.5888 4.6501 17.6499 4.6501ZM9.66764 3.3501C8.01079 3.3501 6.66764 4.69324 6.66764 6.35009L6.66764 16.3655C6.66764 18.0224 8.01079 19.3655 9.66764 19.3655L17.6499 19.3655C19.3068 19.3655 20.6499 18.0224 20.6499 16.3655L20.6499 6.3501C20.6499 4.69324 19.3068 3.3501 17.6499 3.3501L9.66764 3.3501ZM4.71299 8.70214C5.07197 8.70214 5.36299 8.99316 5.36299 9.35214L5.36299 18.8131C5.36299 19.8348 6.19126 20.6631 7.21299 20.6631L15.6563 20.6631C16.0153 20.6631 16.3063 20.9541 16.3063 21.3131C16.3063 21.6721 16.0153 21.9631 15.6563 21.9631L7.21299 21.9631C5.47329 21.9631 4.06299 20.5528 4.06299 18.8131L4.06299 9.35214C4.06299 8.99316 4.354 8.70214 4.71299 8.70214ZM10.3374 9.53419C10.5615 9.44631 10.7919 9.48476 10.9048 9.56133C10.9507 9.59251 10.9734 9.62555 10.9852 9.66484C10.9979 9.70716 11.0125 9.80744 10.952 9.9901C10.6102 11.0221 10.0604 12.6264 9.78209 13.2672C9.66281 13.5419 9.74658 13.8625 9.98498 14.0437C10.2234 14.2248 10.5547 14.2197 10.7874 14.0313L12.8902 12.3282L13.7173 13.0867C13.8632 13.2206 14.0622 13.2806 14.2578 13.2498C14.4535 13.2189 14.6243 13.1006 14.722 12.9284C14.8101 12.7731 14.8934 12.5912 14.9656 12.4336L15.0084 12.3404C15.0973 12.1483 15.1796 11.9811 15.2735 11.8363C15.4519 11.5609 15.6258 11.4308 15.8846 11.4093C16.1532 11.3871 16.3137 11.4969 16.435 11.64C16.5 11.7167 16.5478 11.7988 16.5793 11.8633C16.5946 11.8947 16.6048 11.9194 16.6105 11.934L16.6151 11.9463C16.7257 12.2846 17.0884 12.4714 17.4286 12.364C17.7709 12.2559 17.9608 11.8908 17.8527 11.5485L17.2329 11.7442C17.8527 11.5485 17.8526 11.5482 17.8525 11.5479L17.8524 11.5473L17.8519 11.546L17.851 11.5432L17.8487 11.5362L17.8424 11.5176C17.8373 11.5031 17.8306 11.4846 17.8221 11.4627C17.8051 11.419 17.7806 11.3608 17.7476 11.2932C17.6824 11.1597 17.5793 10.9795 17.4268 10.7996C17.113 10.4293 16.5726 10.0479 15.7772 10.1138C14.972 10.1805 14.4863 10.6604 14.1824 11.1295C14.0945 11.2651 14.0183 11.4048 13.9516 11.5377L13.3559 10.9914C13.1186 10.7737 12.7577 10.7627 12.5075 10.9653L11.8027 11.5361C11.9438 11.1251 12.0772 10.7276 12.1861 10.3988C12.3123 10.0179 12.335 9.63959 12.2302 9.29077C12.1245 8.93891 11.904 8.66821 11.6344 8.48539C11.1161 8.13395 10.4253 8.10332 9.86279 8.3239C9.52858 8.45495 9.36388 8.83211 9.49493 9.16632C9.62598 9.50053 10.0031 9.66523 10.3374 9.53419Z"/></svg>

<svg xmlns="http://www.w3.org/2000/svg" fill="none" viewBox="0 0 24 24" focusable="false"><path fill="#74767B" fill-rule="evenodd" d="M17.64 4.65H9.66c-.94 0-1.7.76-1.7 1.7v10.01c0 .94.76 1.7 1.7 1.7h7.98c.94 0 1.7-.76 1.7-1.7V6.35c0-.94-.76-1.7-1.7-1.7m-7.98-1.3c-1.65 0-3 1.34-3 3v10.01c0 1.66 1.35 3 3 3h7.98c1.66 0 3-1.34 3-3V6.35c0-1.66-1.34-3-3-3zM4.71 8.7c.36 0 .65.29.65.65v9.46c0 1.02.83 1.85 1.85 1.85h8.44c.36 0 .65.29.65.65s-.29.65-.65.65H7.21a3.15 3.15 0 0 1-3.15-3.15V9.35c0-.36.29-.65.65-.65m5.62.83c.23-.09.46-.05.57.03.05.03.07.06.08.1s.03.14-.03.33c-.34 1.03-.89 2.63-1.17 3.27a.649.649 0 0 0 1 .77l2.11-1.71.82.76c.15.14.35.2.54.16.2-.03.37-.14.47-.32.09-.15.17-.33.24-.49l.04-.09c.09-.2.17-.36.27-.51.18-.27.35-.4.61-.43.27-.02.43.09.55.24.07.07.11.15.14.22.02.03.03.05.04.07v.01c.11.34.47.53.81.42.35-.11.54-.47.43-.82l-.62.2.62-.2-.01-.01v-.02c-.01-.01-.01-.03-.02-.05-.02-.05-.04-.1-.08-.17-.06-.14-.17-.32-.32-.5-.31-.37-.85-.75-1.65-.68s-1.29.55-1.59 1.01c-.09.14-.17.28-.23.41l-.6-.54a.65.65 0 0 0-.85-.03l-.7.57c.14-.41.27-.81.38-1.14.13-.38.15-.76.05-1.1a1.48 1.48 0 0 0-.6-.81c-.52-.35-1.21-.38-1.77-.16-.34.13-.5.51-.37.84.13.34.51.5.84.37"/></svg>
